X:106
T:Flighting Horse. THO5.106
M:C|
L:1/8
B:Thompson's Complete Collection of 200 Favourite Dances Vol.5
F:https://www.libraryofdance.org/manuals/1780c-Thompson-Compleat-5.pdf
Z:vmp. Peter Dunk 2024
Q:1/4=70
K:D
d/c/d/c/ d/c/d/c/ d/c/B/A/ G/F/E/D/|B/c/d/c/ d/A/F/D/ EE E2|
d/c/d/c/ d/c/d/c/ d/c/B/A/ G/F/E/D/|B/c/d/B/ A/G/F/E/ DD D2:|
|:a/g/a/b/ af g/f/g/a/ ge|f/e/d/f/ g/f/e/d/ ee e2|
a/g/a/b/ af g/f/g/a/ ge|g/f/e/d/ c/d/e/c/ dd d2:|
W:
W:First Gent set to the 2nd Lady & turn ./.
W:The first Lady to the 2nd Gent ./:
W:Cross over two Coupls and lead up one :/.
W:Right & Left :/:

